X:1
T:"Les fees sont d'exquises danseuses"
T:"Les fées sont d'exquises danseuses"
T:(The Fairies are Exquisite Dancers) No 4 from Preludes Book 2 
T:Claude Debussy (1862-1918) 
C:Claude Debussy (1862-1918)
%%score { ( 1 4 5 ) | ( 2 6 ) | ( 3 7 ) }
L:1/8
Q:1/4=69
M:3/8
K:Db
V:1 treble nm="Grand Piano" snm="Pno."
V:4 treble 
V:5 treble 
V:2 treble 
V:6 treble 
V:3 bass 
V:7 bass 
V:1
"^Rapide e léger" x3 | x3 | x3 |[K:bass] x3 | %4
[I:staff +1] (B,,/4_C,/4B,,/4C,/4[I:staff -1] B,/4_C/4B,/4C/4[I:staff +1] B/4_c/4B/4c/4) | %5
[I:staff -1][K:treble]"^sempre leggierissimo" (b/4_c'/4b/4c'/4b/4c'/4b/4c'/4b/4c'/4b/4c'/4 | %6
 b/4_c'/4b/4c'/4b/4c'/4b/4c'/4b/4c'/4b/4c'/4 | b/4_c'/4b/4c'/4b/4c'/4b/4c'/4b/4c'/4b/4c'/4) | %8
!p! b/4_c'/4b/4c'/4b/4c'/4b/4c'/4b/4c'/4b/4c'/4 | %9
!<(! b/4_c'/4b/4c'/4b/4c'/4b/4c'/4b/4c'/4b/4!<)!!mp!c'/4 | %10
!p!!<(! (!trill(!Tb!trill(!Ta!trill(!Td'!<)! |!mp!!>(! !trill(!T_c'!trill(!Tb!trill(!Ta)!>)! | %12
!pp![I:staff +1] (7:4:7(E/4[I:staff -1]B/4_c/4B/4c/4B/4E/4)[I:staff +1] (7:4:7(D/4[I:staff -1]A/4B/4A/4B/4A/4D/4)[I:staff +1] (7:4:7(G/4[I:staff -1]d/4e/4d/4e/4d/4G/4) | %13
!pp![I:staff +1] (7:4:7(_F/4[I:staff -1]_c/4d/4c/4d/4c/4F/4)[I:staff +1] (7:4:7(E/4[I:staff -1]B/4c/4B/4c/4B/4E/4)[I:staff +1] (7:4:7(D/4[I:staff -1]A/4B/4A/4B/4A/4D/4) | %14
!p!"_cresc." !trill(!TA3 | %15
 (7:4:7(A/4B/4=B/4=d/4=e/4f/4g/4)!mp![I:staff +1] (7:4:7(a/4_b/4!<(![I:staff -1]=b/4=d'/4=e'/4f'/4g'/4-!<)!!mf! g'/) z/ | %16
[K:bass]!p!!<(![I:staff +1] (B,,/4_C,/4B,,/4C,/4[I:staff -1] B,/4_C/4B,/4C/4[I:staff +1] B/4_c/4B/4!<)!!mp!c/4) | %17
[I:staff -1][K:treble] x3 | %18
[K:bass]!p!!<(![I:staff +1] (B,,/4_C,/4B,,/4C,/4[I:staff -1] B,/4_C/4B,/4C/4[I:staff +1] B/4_c/4B/4!<)!!mp!c/4) | %19
[I:staff -1] x3 | x3 | x3 | !breath!x3 |[K:treble][Q:1/4=50]"^Rubato" x/ z (!tenuto![eg-b-e']2 | %24
 [dgbd']/[cc']/[Bb]) ([Ee]/[Ff]/ | [Gg]/[Aa]/[Bb])!p!!<(!!8va(! ([ee']/[gg']/ | %26
 [=e=e']/[=g=g']/[=a=a']/[gg']/[_e_e']/!<)!!mp![bb']/)!8va)! |[Q:1/4=69]"^au Mouvt." x3 | x3 | x3 | %30
[Q:1/4=65]"^Cédez - - - - - - - - - -" x3[Q:1/8=120][Q:1/8=110] || %31
[K:E][Q:1/4=55]"^Sans rigueur"!p! ([dd'][=d=d'][cc']- | [cc']>[dd'][cc']-) | ([cc']>[dd'][cc']- | %34
!<(! [cc'][dd']!<)!!mp![gg']) |[Q:1/4=60]"^a tempo"!p! ([Gg]>[Dd][Cc]) | [AB]3 | %37
!pp! ([Gg]>[^D^d][^C^c]) | [AB]3 | %39
[K:bass]!p![Q:1/4=55]"^Retenu - - - - - - - - - - - - - - - - -" (F,>=C=D) | %40
[Q:1/8=100]!>(! (F,>=C!>)!!pp!=D) ||[K:Db][Q:1/4=69]"^1er Mouvt."!p!!<(! (G,>C!<)!!mp!=D) | %42
!p!!<(! (G,>CE)!<)! |!mp!!<(! (=G,>D=E)!<)! |[K:treble]!mf! !tenuto!c'3- | %45
 c'/(=b/{/c'}b/_b/=g/=e/) |!>(! (c/=B/{/c}B/_B/=G/=E/)!>)! | %47
[K:bass]!p! (C/{/!courtesy!_E}D/B,/=G,/)!mf!!>(! (C/{/E}D/ |B,/=G,/)!>)!!p! (C/{/E}D/=A,/_G,/) | %49
[Q:1/4=65]"^Cédez - - - - - - - - - - - - - - - - - - - - -" (C/{/E}D/[Q:1/8=125]B,/=G,/)!mf![Q:1/8=120]!>(! (C/{/E}D/ | %50
[Q:1/8=115]B,/=G,/)!>)!!p![Q:1/8=110]!>(! (C/{/E}D/[Q:1/8=105]B,/G,/)!>)! | %51
[K:treble][Q:1/4=50]"^Rubato - - - - - - - - - - - - - - - - - - - - - - - - - - - - - - - - - - - - - - -"!p! z (=G/c/A/F/) | %52
 z/ f/!>(! (b>f)!>)! |!pp! z/ f/!>(! (b>f)!>)! | %54
[Q:1/4=69]"^Mouvt."!pp! z3/4!<(! (=f/4 b/4=a/4^f/4=d/4B/4=A/4^F/4!<)!!p!=D/4) | %55
[Q:1/4=50]"^Cédez - - - - - - - - -" x3 | %56
[Q:1/4=69]"^Mouvt." z/ (A,/4B,/4 D/4E/4[I:staff +1]A/4B/4[I:staff -1] d/4e/4a/4b/4) | %57
 z3/4 (c'/4"_expressif" _e'/8d'/8b/8=g/8e/8d/8B/8=G/8) z | x3 | %59
 z3/4 (C/4 _E/8D/8B,/8D/8E/8=G/8B/8) z/8 z | x3 | z3/4 (c'/4 _e'/8d'/8b/8=g/8e/8d/8B/8=G/8) z | %62
 z3/4 (c'/4 _e'/8d'/8b/8=g/8e/8d/8B/8=G/8) z | z3/4 (C/4 _E/4D/4B,/4=G,/4B,/4D/4E/4=G/4) | %64
 (5:4:5(=A/4c/4B/4=G/4=E/4) (5:4:5(c/4_e/4d/4B/4G/4) (5:4:5(A/4c/4B/4G/4=E/4) | %65
"_dim. molto" (5:4:5(c/4_e/4d/4B/4=G/4) (5:4:5(=A/4c/4B/4G/4=E/4)[Q:1/4=50]"^Cédez - - - -" (.=e/4.=g/4._a/4.=a/4) | %66
[Q:1/4=65]"^Mouvt. (caressant)"!p!"_e cresc." ([Bb]2 [Aa] | [F=A!courtesy!=cf][=D=d][Cc]) | %68
 ([=A,=B,E-F-=A]2 [=B,EF=B]) |!mp!!<(! ([Cc]2 [=D=d])!<)! |!mf! ([Bb]2 [Aa] | %71
!<(! [F=A!courtesy!=cf][=D=d][Cc])!<)! ||[K:C][Q:1/4=60]"^En retenant"!>(! !trill(!Ta3-!>)! | %73
!>(! !trill(!Ta3-!>)! |!p!!>(! !trill(!Ta3 | (!trill(!Ta2!>)! !trill(!TA-) |!pp! !trill(!TA3- | %77
 !trill(!TA3- | !trill(!TA3- | !trill(!TA3- | !trill(!TA3- | !trill(!TA3- | !trill(!TA3 | %83
 !trill(!TA3- | !trill(!TA3 | !trill(!TA3- | !trill(!TA3 | %87
[Q:1/4=62]"^Serrez - - - - - - - - - - - - - - - - - - - -"[I:staff +1] !tenuto!A,/4B,/4A,/4B,/4[Q:1/8=130][I:staff -1] !tenuto!A/4B/4A/4B/4[Q:1/8=135] !tenuto!a/4b/4a/4b/4 | %88
[Q:1/4=60]"^au Mouvt. (en retenant)""_dim." !trill(!Ta3 | !trill(!Ta3 |!p!!>(! !trill(!Ta3!>)! | %91
!p!!>(! !trill(!Ta3 | (!trill(!Ta2!>)! !trill(!TA-) |!pp! !trill(!TA3- | !trill(!TA3- | %95
 !trill(!TA3- | !trill(!TA3- | !trill(!TA3- | !trill(!TA3- | !trill(!TA3 || %100
[K:Db][Q:1/4=69]"^Mouvt." x3 | x3 | x3 |[K:bass] x3 | %104
!pp!!<(![I:staff +1] (B,,/4_C,/4B,,/4C,/4[I:staff -1] B,/4_C/4B,/4C/4[I:staff +1] B/4_c/4B/4!<)!!p!c/4) | %105
[I:staff -1][K:treble] x3 | %106
[K:bass]!pp!!<(![I:staff +1] (B,,/4_C,/4B,,/4C,/4[I:staff -1] B,/4_C/4B,/4C/4[I:staff +1] B/4_c/4B/4!<)!!p!c/4) | %107
[I:staff -1] x3 | x3 | x3 | x3 | x3 |[K:treble] x3 | x3 | x3 | %115
 x x[I:staff +1] (5:4:5(c/4=A/4[I:staff -1]G/4-[xd]/4-[xg]/4-) |!pp!!8va(! x3- | x3- | x3- | %119
 x3!8va)! | z z!p!!<(!!8va(!{/d'} !>!.d''!<)!!8va)! | x3 | x3 | x3 | x3 | x3 | x3 |] %127
V:2
!pp!"_una corda" (5:4:5(=e/4c/4[I:staff -1]A/4_e/4a/4)[I:staff +1] (5:4:5(c/4=A/4[I:staff -1]G/4d/4g/4)[I:staff +1] (5:4:5(=B/4=G/4[I:staff -1]E/4_B/4e/4) | %1
[I:staff +1] (5:4:5(=e/4c/4[I:staff -1]A/4_e/4a/4)[I:staff +1] (5:4:5(f/4=d/4[I:staff -1]_d/4a/4d'/4)[I:staff +1] (5:4:5(=g/4=e/4[I:staff -1]_e/4b/4e'/4) | %2
[I:staff +1] (5:4:5(=e/4c/4[I:staff -1]A/4_e/4a/4)[I:staff +1] (5:4:5(c/4=A/4[I:staff -1]_G/4d/4g/4)[I:staff +1] (5:4:5(=B/4=G/4[I:staff -1]E/4_B/4e/4) | %3
[I:staff +1][K:bass] (5:4:5(=E/4C/4[I:staff -1]A,/4_E/4A/4)[I:staff +1] (5:4:5(C/4=A,/4[I:staff -1]G,/4D/4G/4)[I:staff +1] (5:4:5(=B,/4=G,/4[I:staff -1]E,/4_B,/4E/4) | %4
!<(![I:staff +1] E,,[I:staff -1] E,[I:staff +1][K:treble] E!<)! |!p!{/[B,^F]} !tenuto![E=G]3- | %6
 [E!courtesy!=G]3- | [E!courtesy!=G]3 | z{/[B,^F]} (.[E=G].[D_FA]) |{/[B,^F]} [E-=G]2 [EGB] | %10
 [A,B,D_F]3- | [A,B,DF]3 | .E.D.G | ._F.E.D |!p! z3 | [A,=B,=DF]3 | %16
[K:bass] E,,[I:staff -1] E,[I:staff +1][K:treble] E | %17
!pp! (5:4:5(=e/4c/4[I:staff -1]A/4_e/4a/4)[I:staff +1] (5:4:5(c/4=A/4[I:staff -1]G/4d/4g/4)[I:staff +1] (5:4:5(=B/4=G/4[I:staff -1]E/4_B/4e/4) | %18
[I:staff +1][K:bass] E,,[I:staff -1] E,[I:staff +1][K:treble] E | %19
[K:bass]!pp! (5:4:5(=E/4C/4[I:staff -1]A,/4_E/4A/4)[I:staff +1] (5:4:5(C/4=A,/4[I:staff -1]G,/4D/4G/4)[I:staff +1] (5:4:5(=B,/4=G,/4[I:staff -1]E,/4_B,/4E/4) | %20
[I:staff +1] (5:4:5(=G,/4=E,/4[I:staff -1]_E,/4_B,/4.E/4)[I:staff +1] z z | %21
 (5:4:5(=B,/4=G,/4[I:staff -1]E,/4_B,/4E/4)[I:staff +1] (5:4:5(G,/4=E,/4[I:staff -1]_E,/4_B,/4E/4)[I:staff +1] (5:4:5(=B,/4G,/4[I:staff -1]E,/4_B,/4E/4) | %22
[I:staff +1] z (5:4:5(=G,/4=E,/4[I:staff -1]_E,/4_B,/4.E/4)[I:staff +1] z | %23
!<(! x/ z!<)![K:treble]!mf! !tenuto![EG-B-]2 |!>(! [GB]2!>)![K:bass]!p! [B,D] | %25
 [DE] z[K:treble] [DEGB] | [=E=GB]2 [_GBc] |[K:bass]!pp! z !tenuto![F,A,C]2 | %28
!>(! (.[=E,=G,=B,].[_E,_G,_B,].[=D,F,=A,])!>)! |!ppp! z3 |[K:treble] .F/.=G/.=A/.=B/.c/.=d/ || %31
[K:E] [AB]3- | [AB]3- | [AB]3- | [AB]3 | [AB]3 | F>[I:staff -1][=C=c][=D=d] |[I:staff +1] [AB]3 | %38
 F>[I:staff -1][=C=c][=D=d] |[I:staff +1] x2[I:staff -1] (=D/[I:staff +1][FG]/) | %40
 x2[I:staff -1] (=D/[I:staff +1][FG]/) ||[K:Db] x2[I:staff -1] (=D/[I:staff +1][GA]/) | %42
 x2[I:staff -1] (E/[I:staff +1][G=A]/) | x2[I:staff -1] =E/[I:staff +1][=Gc]/- | [Gc]3- | [Gc]3 | %46
[K:bass] z3 | z2 ([=E,=G,]- |[E,G,] [_E,_G,]2) | z2 [=E,-=G,] | =E,3 | z D2 | %52
[K:treble] !tenuto![DFB]3 | !tenuto![=DF_c]3 | !tenuto![=D^F=c]3 | %55
[K:bass] z!pp!!<(! x [F,A,_DF]-!<)! |!p! x3[K:treble] |!p! ([=E=Gc]2 =A |[I:staff -1] ^F=EC) | %59
[I:staff +1][K:bass] (=A,2 B, |[I:staff -1] ^C=E^F) | %61
[I:staff +1][K:treble]!mf!!<(! ([=E=G!courtesy!=c]2!<)!!f! !arpeggio![!courtesy!_DE=A]) | %62
!mf!!<(! ([=E=Gc]2!<)!!f! !arpeggio![DE=A]) | [=E=Gc]3 | x x x |[K:bass] x3 | %66
 z"_léger" (5:4:5(=D,/4F,/4A,/4_C/4=D/4 F/) z/ | z (E,/4_G,/4=A,/4E/4-) x | %68
 z (E,/4F,/4=A,/4E/4-) x | z (E,/4G,/4_A,/4E/4-) x | z (5:4:5(=D,/4F,/4A,/4_C/4=D/4 F/) z/ | %71
 z (E,/4_G,/4=A,/4E/4-) x ||[K:C] x3 | x3 |[K:treble]"_Doux et réveur" ([GA^c^f]3/2[_G_A=c=f]3/2) | %75
 ([FGBe]2 !>!!tenuto!E-) | E3- | E3- |"_un peu en dehors" E>!>!^C(!>!C/!>!E/) | %79
 !>!E>!>!^C(!>!C/!>!E/) |!<(! (!>!E!>!^C!<)!!p!!>!!tenuto!F-) |!>(! (F3!>)! |!pp! !>!E3) | %83
 (!>!B,>!>!D!>!B,- | B,!>!D!>!E-) | (E3 | !>!B,3) | %87
[K:bass][I:staff +1] [D,F,][I:staff -1][K:treble] [DF] [df]- | [df]3- | [df]3- | [df] z z | %91
 ([GA^c^f]3/2[_G_A=c=f]3/2) | ([FGBe]2 !>!!tenuto!E-) | E3- | E3- | E>!>!^C(!>!C/!>!E/) | %96
 !>!E>!>!^C(!>!C/!>!E/) |!<(! !>!.E!>!.^C!<)!!p!!>!!tenuto!F- | F3- |!>(! F3!>)! || %100
[K:Db]!pp! (5:4:5(=e/4c/4[I:staff -1]A/4_e/4a/4)[I:staff +1] (5:4:5(c/4=A/4[I:staff -1]G/4d/4g/4)[I:staff +1] (5:4:5(=B/4=G/4[I:staff -1]E/4_B/4e/4) | %101
[I:staff +1] (5:4:5(=e/4c/4[I:staff -1]A/4_e/4a/4)[I:staff +1] (5:4:5(f/4=d/4[I:staff -1]_d/4a/4d'/4)[I:staff +1] (5:4:5(=g/4=e/4[I:staff -1]_e/4b/4e'/4) | %102
[I:staff +1] (5:4:5(=e/4c/4[I:staff -1]A/4_e/4a/4)[I:staff +1] (5:4:5(c/4=A/4[I:staff -1]G/4d/4g/4)[I:staff +1] (5:4:5(=B/4=G/4[I:staff -1]E/4_B/4e/4) | %103
[I:staff +1][K:bass] (5:4:5(=E/4C/4[I:staff -1]A,/4_E/4A/4)[I:staff +1] (5:4:5(C/4=A,/4[I:staff -1]G,/4D/4G/4)[I:staff +1] (5:4:5(=B,/4=G,/4[I:staff -1]E,/4_B,/4E/4) | %104
[I:staff +1] E,,[I:staff -1] E,[I:staff +1][K:treble] E | %105
!pp! (5:4:5(=e/4c/4[I:staff -1]A/4_e/4a/4)[I:staff +1] (5:4:5(c/4=A/4[I:staff -1]G/4d/4g/4)[I:staff +1] (5:4:5(=B/4=G/4[I:staff -1]E/4_B/4e/4) | %106
[I:staff +1][K:bass] E,,[I:staff -1] E,[I:staff +1][K:treble] E | %107
[K:bass]!pp! (5:4:5(=E/4C/4[I:staff -1]A,/4_E/4A/4)[I:staff +1] (5:4:5(C/4=A,/4[I:staff -1]G,/4D/4G/4)[I:staff +1] (5:4:5(=B,/4=G,/4[I:staff -1]E,/4_B,/4E/4) | %108
[I:staff +1] (5:4:5(=B,/4=G,/4[I:staff -1]E,/4_B,/4E/4[I:staff +1] (5:4:5=B,/4G,/4[I:staff -1]E,/4_B,/4E/4)[I:staff +1] (5:4:5(=A,/4F,/4[I:staff -1]D,/4_A,/4D/4 | %109
[I:staff +1] (5:4:5=A,/4F,/4[I:staff -1]D,/4_A,/4D/4)!<(![I:staff +1] (5:4:5(=E/4C/4[I:staff -1]A,/4_E/4A/4)[I:staff +1] (5:4:5(C/4=A,/4[I:staff -1]G,/4D/4!<)!!p!G/4) | %110
!pp![I:staff +1] (5:4:5(=B,/4=G,/4[I:staff -1]E,/4_B,/4E/4)[I:staff +1] (5:4:5(=B,/4G,/4[I:staff -1]E,/4_B,/4E/4)[I:staff +1] (5:4:5(=A,/4F,/4[I:staff -1]D,/4_A,/4D/4 | %111
[I:staff +1] (5:4:5=A,/4F,/4[I:staff -1]D,/4_A,/4D/4)!<(![I:staff +1] (5:4:5(=E/4C/4[I:staff -1]A,/4_E/4A/4)[I:staff +1] (5:4:5(C/4=A,/4[I:staff -1]G,/4D/4!<)!!p!G/4) | %112
[I:staff +1][K:treble]!pp! (5:4:5(=B/4=G/4[I:staff -1]E/4_B/4e/4[I:staff +1] (5:4:5=B/4G/4[I:staff -1]E/4_B/4e/4)[I:staff +1] (5:4:5(=A/4F/4[I:staff -1]D/4_A/4d/4 | %113
[I:staff +1] (5:4:5=A/4F/4[I:staff -1]D/4_A/4d/4)!<(![I:staff +1] (5:4:5(=e/4c/4[I:staff -1]A/4_e/4a/4)[I:staff +1] (5:4:5(c/4=A/4[I:staff -1]G/4d/4!<)!!p!g/4) | %114
!pp![I:staff +1] (5:4:5(=B/4=G/4[I:staff -1]E/4_B/4e/4[I:staff +1] (5:4:5=B/4G/4[I:staff -1]E/4_B/4e/4)[I:staff +1] (5:4:5(=A/4F/4[I:staff -1]D/4_A/4d/4 | %115
[I:staff +1] (5:4:5=A/4F/4[I:staff -1]D/4_A/4d/4)!<(![I:staff +1] (5:4:5(=e/4c/4[I:staff -1]A/4_e/4a/4)[I:staff +1] (5:4:5x/4-x/4-x/4-x/4-!<)!!p!x/4- | %116
 x3- | x3- | x3- | x3 | x[I:staff +1] (5:4:5(=A/4F/4[I:staff -1]D/4-[x_A]/4-[xd]/4-)x- | x3 | x3 | %123
 x3 | x3 | x3 | x3 |] %127
V:3
 x3 | x3 | x3 | x3 | x3 | x3 | x3 | x3 | x3 | x3 |!ped! z!>(! (A,,D,,-)!>)! | D,,!ped-up! z z | %12
 x3 | x3 | x3 | x3 | x3 | x3 | x3 | x3 | x3 | x3 | x3 | %23
"_tre corda"!ped! x/ x/ A,/4-[xD]/4- [A,D]2!ped-up! |!ped! x x!ped-up!!ped! x!ped-up! | %25
!ped! x x!ped-up!!ped! A,!ped-up! |!ped! x3/2!ped-up!!ped! x/!ped-up!!ped! x!ped-up! | %27
 .B,,,/.=B,,,/!tenuto!C,,.D,,/.E,,/ | .=E,,/.^F,,/.^G,,/.^A,,/.=B,,/.=D,/ | %29
 .F,/.G,/.=A,/.=B,/.C/.=D/ | z3 ||[K:E]!ped![I:staff -1] (F!ped-up!!ped!=G!ped-up!!ped!^G-) | %32
 (G/C/!ped-up!!ped! G2)!ped-up!!ped! | (G/C/!ped-up!!ped! =G2-)!ped-up!!ped! | %34
 (G/C/!ped-up!!ped!F!ped-up!!ped!=F/E/)!ped-up! | %35
!ped! (D/C/[I:staff +1]F,!ped-up!!ped!B,,)!ped-up! |!ped! F,3/2 x/!ped-up!!ped! x!ped-up! | %37
!ped![I:staff -1] (^D/^C/[I:staff +1]F,!ped-up!!ped!B,,)!ped-up! | %38
!ped! F,3/2 x/!ped-up!!ped! x!ped-up! |!ped! x3!ped-up! |!ped! x3!ped-up! || %41
[K:Db]!ped! A,,,3-!ped-up! |!ped! A,,,3!ped-up! |!ped! A,,,3- | A,,,3- | A,,,3!ped-up! | z3 | z3 | %48
 A,,,3 | z3 | z (A,,2- |!ped! [D,,A,,]3)!ped-up!!ped!!ped-up! |!ped! z z .D,,!ped-up! | %53
!ped! z z .D,,!ped-up! |!ped! x!ped-up!!ped! x2!ped-up! |!pp!!ped! (A,,- [D,,A,,]2-) | x3!ped-up! | %57
!ped! x2!ped-up!!ped! x!ped-up! |!ped! x!ped-up!!ped! x!ped-up!!ped! x!ped-up! | %59
!ped! x2!ped-up!!ped! x!ped-up! |!ped! x!ped-up!!ped! x!ped-up!!ped! x!ped-up! | %61
!ped! x2!ped-up!!ped! x!ped-up! |!ped! z3!ped-up!!ped!!ped-up! |!ped! z3!ped-up! | %64
!ped! z3!ped-up!!ped!!ped-up!!ped!!ped-up! |!ped! x!ped-up!!ped! x!ped-up! x | %66
!ped! x2!ped-up!!ped! x!ped-up! |!ped! x!ped-up!!ped! x!ped-up!!ped! x!ped-up! | %68
!ped! x2!ped-up!!ped! x!ped-up! |!ped! x2!ped-up!!ped! x!ped-up! |!ped! x2!ped-up!!ped! x!ped-up! | %71
!ped! x!ped-up!!ped! x!ped-up!!ped! x!ped-up! ||[K:C]!ped! x3 |"_una corda" x3!ped-up! | %74
!ped! x3/2!ped-up!!ped! x3/2!ped-up! |!ped! x2!ped-up!!ped! !>!!tenuto![F,G,B,]- |!pp! [F,G,B,]3- | %77
 [F,G,B,]3- | [F,G,B,]3- | [F,G,B,]3- | [F,G,B,]3!ped-up! |!ped! [F,G,B,]3-!ped-up! | %82
!ped! [F,G,B,]3!ped-up! |!ped! [E,G,A,]3-!ped-up! |!ped! [E,G,A,]3-!ped-up! | %85
!ped! [E,G,A,]3-!ped-up! |!ped! [E,G,A,]3!ped-up! |"_tre corda"!ped! [G,,,G,,]3- | x3- | x3- | %90
 [G,,,G,,]!ped-up!"_una corda" z z |!ped! x3/2!ped-up!!ped! x3/2!ped-up! | %92
!ped! x2!ped-up!!ped! !>!!tenuto![F,G,B,]- |!pp! [F,G,B,]3- | [F,G,B,]3-!ped-up! | %95
!ped! [F,G,B,]3- | [F,G,B,]3- | [F,G,B,]3- | [F,G,B,]!ped-up!!ped! z z | x3!ped-up! ||[K:Db] x3 | %101
 x3 | x3 | x3 | x3 | x3 | x3 | x3 | x3 | x3 | x3 | x3 | x3 | x3 | x3 | x3!ped! | x3 | x3 | x3 | %119
 x3!ped-up! | %120
[K:treble]!pp! (5:4:5(=B/4=G/4!>(![I:staff -1]E/4_B/4e/4)!ped![I:staff +1] (5:4:5x/4-x/4-x/4-x/4-!>)!!pp!x/4-((x!ped-up! | %121
!pp!!ped! !tenuto!D3-)) | D3 |!>(! !tenuto!.E2!ped-up! z!>)! |!ppp!!ped! !tenuto!.F2!ped-up! z | %125
!ped! x3 | x3!ped-up! |] %127
V:4
 x3 | x3 | x3 |[K:bass] x3 | x3 |[K:treble] .e/.e/.e/.e/.e/.e/ | .e/.e/.e/.e/.e/.e/ | %7
 .e/.e/.e/.e/.e/.e/ | .e/.e/.e/.e/.e/.e/ | .e/.e/.e/.e/.e/.e/ | (edg | _fed) | x3 | x3 | x3 | %15
 A2 x |[K:bass] x3 |[K:treble] x3 |[K:bass] x3 | x3 | x3 | x3 | x3 |[K:treble] x7/2 | x2 [Bd] | %25
 [de] x!8va(! [bd'] | [bd']2 [bc']!8va)! | x3 | x3 | x3 | x3 ||[K:E] a3- | a3- | a3 | x3 | x3 | %36
 =D/=C/ x2 | x3 | =D/=C/ x2 |[K:bass] x3 | x3 ||[K:Db] x3 | x3 | x3 |[K:treble] [=e=g]3- | [eg]3 | %46
 x3 |[K:bass] x3 | x3 | x3 | x3 |[K:treble] x (E=E/F/) | x3 | x3 | x3 | %55
 z[I:staff +1] ([E,_A,B,][I:staff -1][B_d=fb]-) | x3 | x3 | x3 | x3 | x3 | x3 | x3 | x3 | x3 | x3 | %66
 [=df]3 | x [_GB]2 | x3 | [EG_A]2 x | [=df]3 | x [_GB]2 || %72
[K:C] ((x/8x/8x/8x/8x/8x/8x/8x/8)!p! (!///-!x/x/) (!///-!x/!trill)!x/) | %73
 (!///-!x/x/) (!///-!x/x/) (!///-!x/!trill)!x/) | (!///-!x/x/) (!///-!x/x/) (!///-!x/!trill)!x/)) | %75
 ((!///-!x/x/) (!///-!x/!trill)!x/) (!///-!x/!trill)!x/) | %76
 (!///-!x/x/) (!///-!x/x/) (!///-!x/!trill)!x/) | (!///-!x/x/) (!///-!x/x/) (!///-!x/!trill)!x/) | %78
 (!///-!x/x/) (!///-!x/x/) (!///-!x/!trill)!x/) | (!///-!x/x/) (!///-!x/x/) (!///-!x/!trill)!x/) | %80
 (!///-!x/x/) (!///-!x/x/) (!///-!x/!trill)!x/) | (!///-!x/x/) (!///-!x/x/) (!///-!x/!trill)!x/) | %82
 (!///-!x/x/) (!///-!x/x/) (!///-!x/!trill)!x/)) | %83
 ((!///-!x/x/) (!///-!x/x/) (!///-!x/!trill)!x/) | %84
 (!///-!x/x/) (!///-!x/x/) (!///-!x/!trill)!x/)) | %85
 ((!///-!x/x/) (!///-!x/x/) (!///-!x/!trill)!x/) | %86
 (!///-!x/x/) (!///-!x/x/) (!///-!x/!trill)!x/)) |[I:staff +1] G,[I:staff -1] G x | %88
 (!///-!x/x/) (!///-!x/x/) (!///-!x/!trill)!x/) | (!///-!x/x/) (!///-!x/x/) (!///-!x/!trill)!x/) | %90
 (!///-!x/x/) (!///-!x/x/) (!///-!x/!trill)!x/) | (!///-!x/x/) (!///-!x/x/) (!///-!x/!trill)!x/) | %92
 ((!///-!x/x/) (!///-!x/!trill)!x/) (!///-!x/!trill)!x/) | %93
 (!///-!x/x/) (!///-!x/x/) (!///-!x/!trill)!x/) | (!///-!x/x/) (!///-!x/x/) (!///-!x/!trill)!x/) | %95
 (!///-!x/x/) (!///-!x/x/) (!///-!x/!trill)!x/) | (!///-!x/x/) (!///-!x/x/) (!///-!x/!trill)!x/) | %97
 (!///-!x/x/) (!///-!x/x/) (!///-!x/!trill)!x/) | (!///-!x/x/) (!///-!x/x/) (!///-!x/!trill)!x/) | %99
 (!///-!x/x/) (!///-!x/x/) (!///-!x/!trill)!x/)) ||[K:Db] x3 | x3 | x3 |[K:bass] x3 | x3 | %105
[K:treble] x3 |[K:bass] x3 | x3 | x3 | x3 | x3 | x3 |[K:treble] x3 | x3 | x3 | x3 | %116
!8va(! .c''2 .=a' | .f'.e'.c' | .=a2 .c' | .e'.f'.=a'!8va)! | x2!8va(! x!8va)! | x3 | x3 | x3 | %124
 x3 | x3 | x3 |] %127
V:5
 x3 | x3 | x3 |[K:bass] x3 | x3 |[K:treble] x3 | x3 | x3 | x3 | x3 | %10
 ((!///-!x/!trill)!x/) (!///-!x/!trill)!x/) (!///-!x/!trill)!x/) | %11
 (!///-!x/!trill)!x/) (!///-!x/!trill)!x/) (!///-!x/!trill)!x/)) | x3 | x3 | x3 | x3 |[K:bass] x3 | %17
[K:treble] x3 |[K:bass] x3 | x3 | x3 | x3 | x3 |[K:treble] x7/2 | x3 | x2!8va(! x | x3!8va)! | x3 | %28
 x3 | x3 | x3 ||[K:E] x3 | x3 | x3 | x3 | x3 | x3 | x3 | x3 |[K:bass] x3 | x3 ||[K:Db] x3 | x3 | %43
 x3 |[K:treble] x3 | x3 | x3 |[K:bass] x3 | x3 | x3 | x3 |[K:treble] x3 | x3 | x3 | x3 | x3 | x3 | %57
 x3 | x3 | x3 | x3 | x3 | x3 | x3 | x3 | x3 | x3 | x3 | x3 | x3 | x3 | x3 ||[K:C] x3 | x3 | x3 | %75
 x3 | x3 | x3 | x3 | x3 | x3 | x3 | x3 | !tenuto!G3- | G3 | !tenuto!G3- | G3 | x2 g- | g3- | g3- | %90
 g z z | x3 | x3 | x3 | x3 | x3 | x3 | x3 | x3 | x3 ||[K:Db] x3 | x3 | x3 |[K:bass] x3 | x3 | %105
[K:treble] x3 |[K:bass] x3 | x3 | x3 | x3 | x3 | x3 |[K:treble] x3 | x3 | x3 | x3 |!8va(! x3 | x3 | %118
 x3 | x3!8va)! | x2!8va(! x!8va)! | x3 | x3 | x3 | x3 | x3 | x3 |] %127
V:6
 x3 | x3 | x3 |[K:bass] x3 | x2[K:treble] x | x3 | x3 | x3 | x3 | x3 | x3 | x3 | x3 | x3 | %14
 ((!///-!x/x/) (!///-!x/x/) (!///-!x/x/)) | x3 |[K:bass] x2[K:treble] x | x3 | %18
[K:bass] x2[K:treble] x |[K:bass] x3 | x3 | x3 | x3 | (3:2:2x/ (x/4- [A,,E,]3)[K:treble] | %24
 D/C/B,[K:bass] (E,/F,/ | G,/A,/B,)[K:treble] x | (D>=D_E) |[K:bass] x3 | x3 | x3 |[K:treble] x3 || %31
[K:E] x3 | x3 | x3 | x3 | x3 | x3 | x3 | x3 | x3 | x3 ||[K:Db] x3 | x3 | x3 | x3 | x3 | %46
[K:bass] x3 | x3 | x3 | x3 | x3 | x ([_E,A,]=E,/F,/ |[K:treble] A,3) | A,3 | A,3 |[K:bass] x3 | %56
 x3/2[K:treble] x3/2 | x3 | x3 |[K:bass] [=E,=G,]3- | [E,G,]3 |[K:treble] (B,2 =G,) | (B,2 =G,) | %63
 B,3- | x3 |[K:bass] x3 | x3 | x3 | x3 | x3 | x3 | x3 ||[K:C] x3 | x3 |[K:treble] x3 | x3 | x3 | %77
 x3 | x3 | x3 | x3 | x3 | x3 | x3 | x3 | x3 | x3 |[K:bass] x[K:treble] x2 | x3 | x3 | x3 | x3 | %92
 x3 | x3 | x3 | x3 | x3 | x3 | x3 | x3 ||[K:Db] x3 | x3 | x3 |[K:bass] x3 | x2[K:treble] x | x3 | %106
[K:bass] x2[K:treble] x |[K:bass] x3 | x3 | x3 | x3 | x3 |[K:treble] x3 | x3 | x3 | x3 | x3 | x3 | %118
 x3 | x3 | x3 | x3 | x3 | x3 | x3 | x3 | x3 |] %127
V:7
 x3 | x3 | x3 | x3 | x3 | x3 | x3 | x3 | x3 | x3 | x3 | x3 | x3 | x3 | x3 | x3 | x3 | x3 | x3 | %19
 x3 | x3 | x3 | x3 | (3A,,,/4-[xE,,]/4-[I:staff -1][x-A,,]/4[I:staff +1] [A,,,E,,]3 | x3 | x3 | %26
 A,3 | A,,,3- | A,,,3 | x3 | x3 ||[K:E] x x x | x x x | x x x | x x x | x3 | x (A,,=D,,) | x3 | %38
 x (A,,=D,,-) | !courtesy!=D,,3- | !courtesy!=D,,3 ||[K:Db] x3 | x3 | x3 | x3 | x3 | x3 | x3 | x3 | %49
 x3 | x3 | x2 x | x3 | x3 | x3 | x3 | x3 |[I:staff -1] B,3- | B,3 |[I:staff +1] D,,3- | D,,3 | x3 | %62
 x3 | x3 | x3 | x3 | ([=G,,,=G,,]3 | [=A,,,=A,,]3) | [=B,,,=B,,]3 | [_A,,,_A,,]3 | ([=G,,,=G,,]3 | %71
 [=A,,,=A,,]3) ||[K:C] x3 | x3 | x3 | x3 | [G,,,G,,]3- | [G,,,G,,]3- | [G,,,G,,]3- | [G,,,G,,]3- | %80
 [G,,,G,,]3- | [G,,,G,,]2 G,,,- | G,,,3- | G,,,3 | G,,,3- | G,,,3- | G,,,3 | x3 | x3 | x3 | x3 | %91
 x3 | x3 | [G,,,G,,]3- | [G,,,G,,]3 | G,,,3- | G,,,3- | G,,,3- | G,,, x2 | x3 ||[K:Db] x3 | x3 | %102
 x3 | x3 | x3 | x3 | x3 | x3 | x3 | x3 | x3 | x3 | x3 | x3 | x3 | x3 | x3 | x3 | x3 | x3 | %120
[K:treble] x3 | !tenuto!D3- | D3- | D3- | D3- | D3- | D z z |] %127

